svg/azure-ad.svg

<?xml version="1.0" encoding="UTF-8"?>
<svg xmlns="http://www.w3.org/2000/svg" xmlns:xlink="http://www.w3.org/1999/xlink" width="32" height="32" viewBox="0 0 32 32">
<defs>
<linearGradient id="linear-pattern-0" gradientUnits="userSpaceOnUse" x1="13.25" y1="13.02" x2="8.62" y2="4.25" gradientTransform="matrix(1.777778, 0.00266842, -0.00266842, 1.777778, 0, 0)">
<stop offset="0" stop-color="rgb(9.803922%, 53.333336%, 85.09804%)" stop-opacity="1"/>
<stop offset="0.9" stop-color="rgb(32.941177%, 68.235296%, 94.117647%)" stop-opacity="1"/>
</linearGradient>
<linearGradient id="linear-pattern-1" gradientUnits="userSpaceOnUse" x1="11.26" y1="10.47" x2="14.46" y2="15.99" gradientTransform="matrix(1.777778, 0.00266842, -0.00266842, 1.777778, 0, 0)">
<stop offset="0.1" stop-color="rgb(32.941177%, 68.235296%, 94.117647%)" stop-opacity="1"/>
<stop offset="0.29" stop-color="rgb(30.980393%, 67.058825%, 93.333334%)" stop-opacity="1"/>
<stop offset="0.51" stop-color="rgb(25.490198%, 63.529414%, 91.37255%)" stop-opacity="1"/>
<stop offset="0.74" stop-color="rgb(16.470589%, 57.647061%, 87.843138%)" stop-opacity="1"/>
<stop offset="0.88" stop-color="rgb(9.803922%, 53.333336%, 85.09804%)" stop-opacity="1"/>
</linearGradient>
</defs>
<path fill-rule="nonzero" fill="rgb(31.37255%, 90.196079%, 100%)" fill-opacity="1" d="M 1.796875 18.117188 L 15.875 27.253906 L 30.203125 18.078125 L 32 20.179688 L 15.875 30.558594 L 0 20.179688 Z M 1.796875 18.117188 "/>
<path fill-rule="nonzero" fill="rgb(100%, 100%, 100%)" fill-opacity="1" d="M 2.863281 16.941406 L 15.875 1.441406 L 29.15625 16.960938 L 15.875 25.351562 Z M 2.863281 16.941406 "/>
<path fill-rule="nonzero" fill="rgb(31.37255%, 90.196079%, 100%)" fill-opacity="1" d="M 15.875 1.441406 L 15.875 25.351562 L 2.863281 16.941406 Z M 15.875 1.441406 "/>
<path fill-rule="nonzero" fill="url(#linear-pattern-0)" d="M 15.875 1.441406 L 15.875 25.351562 L 29.15625 16.960938 Z M 15.875 1.441406 "/>
<path fill-rule="nonzero" fill="rgb(32.549021%, 69.411767%, 87.843138%)" fill-opacity="1" d="M 15.875 13.796875 L 29.15625 16.960938 L 15.875 25.351562 Z M 15.875 13.796875 "/>
<path fill-rule="nonzero" fill="rgb(61.176473%, 92.156863%, 100%)" fill-opacity="1" d="M 15.875 25.351562 L 2.863281 16.941406 L 15.875 13.796875 Z M 15.875 25.351562 "/>
<path fill-rule="nonzero" fill="url(#linear-pattern-1)" d="M 15.875 30.558594 L 32 20.179688 L 30.203125 18.078125 L 15.875 27.253906 Z M 15.875 30.558594 "/>
</svg>

<svg role="img" viewBox="0 0 32 32" xmlns="http://www.w3.org/2000/svg"><defs><linearGradient gradientTransform="rotate(.086)scale(1.77778)" gradientUnits="userSpaceOnUse" id="azure-ad_svg__a" x1="13.25" x2="8.62" y1="13.02" y2="4.25"><stop offset="0" stop-color="rgb(9.803922%, 53.333336%, 85.09804%)"/><stop offset=".9" stop-color="rgb(32.941177%, 68.235296%, 94.117647%)"/></linearGradient><linearGradient gradientTransform="rotate(.086)scale(1.77778)" gradientUnits="userSpaceOnUse" id="azure-ad_svg__b" x1="11.26" x2="14.46" y1="10.47" y2="15.99"><stop offset=".1" stop-color="rgb(32.941177%, 68.235296%, 94.117647%)"/><stop offset=".29" stop-color="rgb(30.980393%, 67.058825%, 93.333334%)"/><stop offset=".51" stop-color="rgb(25.490198%, 63.529414%, 91.37255%)"/><stop offset=".74" stop-color="rgb(16.470589%, 57.647061%, 87.843138%)"/><stop offset=".88" stop-color="rgb(9.803922%, 53.333336%, 85.09804%)"/></linearGradient></defs><path d="m1.797 18.117 14.078 9.137 14.328-9.176L32 20.18 15.875 30.559 0 20.179Zm0 0" fill="rgb(31.37255%, 90.196079%, 100%)"/><path d="m2.863 16.941 13.012-15.5 13.281 15.52-13.281 8.39Zm0 0" fill="rgb(100%, 100%, 100%)"/><path d="M15.875 1.441v23.91l-13.012-8.41Zm0 0" fill="rgb(31.37255%, 90.196079%, 100%)"/><path d="M15.875 1.441v23.91l13.281-8.39Zm0 0" fill="url(#azure-ad_svg__a)"/><path d="m15.875 13.797 13.281 3.164-13.281 8.39Zm0 0" fill="rgb(32.549021%, 69.411767%, 87.843138%)"/><path d="m15.875 25.352-13.012-8.41 13.012-3.145Zm0 0" fill="rgb(61.176473%, 92.156863%, 100%)"/><path d="M15.875 30.559 32 20.179l-1.797-2.1-14.328 9.175Zm0 0" fill="url(#azure-ad_svg__b)"/></svg>
